X: 6
T: The Skye Boat Song
R: waltz
M: 3/4
L: 1/8
K: Dmaj
|:"D" A>B A d2 d|"A" e>f e a3|"D" f>e f "G" B2 B|1.B3 "A"A3:|2."A"A3 A3|
|:"Bm"f>d f f3|"Em"e>B e e3|"Bm" d>B c "G"d2 c|1."Bm" B3 B3:|2."Bm"B3 "A"A3|


Tune 3690	Setting 3690

